chains/worldchain/logo.svg

<svg width="1024" height="1024" viewBox="0 0 1024 1024" fill="none" xmlns="http://www.w3.org/2000/svg">
<rect width="1024" height="1024" fill="white"/>
<g clip-path="url(#clip0_5329_32677)">
<path d="M511.999 278.185H510.521C381.445 279.07 277.176 383.778 277.176 513.008C277.176 642.238 382.33 747.824 511.991 747.824C641.652 747.824 746.815 642.669 746.815 513.008C746.815 383.347 641.66 278.185 511.991 278.185H511.999ZM292.977 520.382H352.497C353.382 563.507 362.241 603.969 376.865 638.382H332.262C308.779 604.708 294.455 564.1 292.977 520.382ZM598.689 504.734C597.803 495.729 595.587 486.862 592.039 478.595C588.344 469.883 583.326 461.909 576.976 454.82C575.352 430.598 572.696 408.008 569.148 387.48H628.814C644.169 420.854 653.629 461.177 654.66 504.742H598.689V504.734ZM511.406 293.833H511.699C515.686 293.833 521.443 297.081 528.093 308.01C534.589 318.493 540.793 334.295 546.111 354.53C547.589 359.995 548.921 365.752 550.245 371.809H473.007C474.338 365.752 475.662 359.995 477.14 354.53C482.458 334.295 488.662 318.639 495.158 308.01C501.654 297.227 507.419 293.979 511.406 293.833ZM553.2 387.318C556.01 403.413 558.372 420.992 560.143 439.749C555.563 436.648 550.837 433.992 545.673 431.775C534.889 427.196 523.375 424.833 511.56 424.833C499.746 424.833 488.223 427.196 477.448 431.775C472.276 433.992 467.55 436.501 462.978 439.603C464.602 420.846 466.965 403.274 469.92 387.172H553.216V387.318H553.2ZM582.002 504.287H482.458C486.007 490.256 498.853 479.919 513.915 479.919H574.759C578.746 487.454 581.109 495.721 581.994 504.287H582.002ZM461.192 462.347C474.631 448.909 492.503 441.527 511.406 441.527C530.31 441.527 548.182 448.916 561.621 462.347C562.067 462.794 562.359 463.086 562.806 463.533H513.777C500.631 463.533 488.377 468.551 479.072 477.856C471.691 485.238 466.965 494.397 465.487 504.295H440.672C442.743 488.494 449.832 473.723 461.2 462.355L461.192 462.347ZM566.2 371.663C564.722 364.282 563.098 357.193 561.328 350.397C555.863 329.577 549.221 311.997 541.393 299.59C541.101 299.143 540.801 298.705 540.508 298.258C567.532 306.825 592.2 327.206 611.843 356.593C614.944 361.319 618.046 366.337 620.848 371.509H566.208V371.655L566.2 371.663ZM481.573 299.744C473.892 312.151 467.25 329.577 461.638 350.551C459.868 357.201 458.244 364.289 456.766 371.817H402.119C404.928 366.645 408.03 361.626 411.124 356.901C430.766 327.514 455.427 307.133 482.458 298.566C482.166 298.859 481.866 299.305 481.573 299.751V299.744ZM453.957 387.318C450.409 407.7 447.753 430.298 446.129 454.512C439.779 461.747 434.761 469.721 430.92 478.434C427.372 486.7 425.163 495.567 424.424 504.572H368.306C369.338 460.862 378.79 420.684 394.153 387.311H453.965L453.957 387.318ZM352.497 504.734H292.977C294.601 461.17 308.925 420.846 332.408 387.472H377.012C362.395 421.585 353.529 461.755 352.497 504.734ZM368.299 520.382H424.417C425.155 529.395 427.372 538.254 430.913 546.666C434.607 555.379 439.772 563.499 446.122 570.588C447.746 594.956 450.409 617.701 453.949 638.228H394.137C378.628 604.701 369.176 564.238 368.291 520.374L368.299 520.382ZM511.553 731.722C507.566 731.722 501.808 728.62 495.012 717.544C488.516 707.061 482.312 691.259 476.994 671.024C475.516 665.56 474.184 659.802 472.86 653.745H550.098C548.767 659.802 547.443 665.56 545.965 671.024C540.647 691.259 534.443 706.915 527.947 717.544C521.297 728.62 515.393 731.722 511.553 731.722ZM469.759 638.236C466.949 621.988 464.586 604.27 462.816 585.366C467.396 588.468 472.268 590.977 477.286 593.048C488.069 597.627 499.584 599.99 511.399 599.99C523.213 599.99 534.582 597.627 545.511 593.048C550.683 590.831 555.555 588.175 560.135 585.22C558.365 604.27 556.148 621.995 553.193 638.236H469.751H469.759ZM561.767 562.922C548.328 576.361 530.456 583.742 511.553 583.742C492.649 583.742 474.777 576.353 461.338 562.922C449.816 551.4 442.881 536.637 440.957 520.828H465.772C467.396 530.726 472.122 539.878 479.357 547.267C488.662 556.572 500.916 561.591 514.062 561.591H563.091C562.498 562.183 562.206 562.476 561.759 562.922H561.767ZM574.767 545.196H513.923C498.86 545.196 486.161 534.859 482.466 520.828H582.01C581.124 529.395 578.615 537.661 574.774 545.196H574.767ZM456.913 654.037C458.39 661.426 460.014 668.507 461.785 675.304C467.25 696.124 473.892 713.703 481.72 726.111C482.012 726.557 482.312 726.996 482.605 727.442C455.581 718.876 430.913 698.494 411.27 669.108C408.168 664.382 405.067 659.364 402.265 654.191H456.905V654.045L456.913 654.037ZM541.386 725.964C549.067 713.557 555.709 696.131 561.32 675.158C563.091 668.507 564.715 661.426 566.192 653.891H620.986C618.177 659.063 615.075 664.082 611.981 668.808C592.339 698.194 567.678 718.575 540.647 727.142C540.793 726.85 541.093 726.403 541.386 725.957V725.964ZM569.156 638.236C572.704 617.562 575.359 594.818 577.13 570.45C583.48 563.361 588.498 555.241 592.192 546.528C595.741 538.107 597.95 529.395 598.689 520.389H654.806C653.775 564.254 644.323 604.862 628.96 638.39H569.148V638.243L569.156 638.236ZM670.462 520.382H731.013C729.535 564.1 715.357 604.708 691.874 638.382H646.093C660.718 603.969 669.577 563.507 670.462 520.382ZM670.462 504.734C669.43 461.755 660.718 421.585 646.093 387.472H691.582C715.065 421 729.389 461.17 731.013 504.734H670.462ZM679.475 371.663H638.712C634.425 363.389 629.853 355.569 624.973 348.034C614.49 332.378 602.522 318.793 589.237 307.718C624.535 321.156 655.545 343.308 679.475 371.663ZM432.991 308.603C419.991 319.386 408.33 332.825 398.139 348.034C393.267 355.415 388.688 363.243 384.408 371.663H344.531C368.014 343.747 398.44 321.895 432.999 308.603H432.991ZM344.231 654.037H384.401C388.68 662.312 393.26 670.139 398.132 677.667C408.615 693.322 420.583 706.907 433.868 717.983C398.717 704.398 367.999 682.246 344.223 654.037H344.231ZM588.352 718.429C601.937 707.354 614.344 693.468 624.981 677.521C629.853 670.139 634.433 662.312 638.72 653.891H679.775C655.553 682.693 624.242 705.137 588.359 718.429H588.352Z" fill="black"/>
<path d="M511.998 896.303C723.691 896.303 895.302 724.692 895.302 512.999C895.302 301.307 723.691 129.696 511.998 129.696C300.306 129.696 128.695 301.307 128.695 512.999C128.695 724.692 300.306 896.303 511.998 896.303Z" stroke="#EF7A36" stroke-width="15.3937" stroke-miterlimit="10"/>
<path d="M511.999 880.902C715.186 880.902 879.901 716.186 879.901 513C879.901 309.813 715.186 145.098 511.999 145.098C308.813 145.098 144.098 309.813 144.098 513C144.098 716.186 308.813 880.902 511.999 880.902Z" stroke="#FFB900" stroke-width="15.3937" stroke-miterlimit="10"/>
<path d="M512.001 865.463C706.66 865.463 864.463 707.66 864.463 513.001C864.463 318.342 706.66 160.539 512.001 160.539C317.342 160.539 159.539 318.342 159.539 513.001C159.539 707.66 317.342 865.463 512.001 865.463Z" stroke="#00B979" stroke-width="15.3937" stroke-miterlimit="10"/>
</g>
<defs>
<clipPath id="clip0_5329_32677">
<rect width="782" height="782" fill="white" transform="translate(121 122)"/>
</clipPath>
</defs>
</svg>

<svg xmlns="http://www.w3.org/2000/svg" fill="none" viewBox="0 0 1024 1024"><path fill="#fff" d="M0 0h1024v1024H0z"/><g clip-path="url(#a)"><path fill="#000" d="M512 278.2h-1.5a234.8 234.8 0 1 0 1.5 0ZM293 520.4h59.5c.9 43.1 9.7 83.6 24.4 118h-44.6a218.8 218.8 0 0 1-39.3-118Zm305.7-15.7a88.3 88.3 0 0 0-21.7-49.9 654.8 654.8 0 0 0-7.9-67.3h59.7a299.5 299.5 0 0 1 25.9 117.2h-56Zm-87.3-210.9h.3c4 0 9.7 3.3 16.4 14.2a177.4 177.4 0 0 1 18 46.5c1.5 5.5 2.8 11.3 4.1 17.3H473c1.3-6 2.7-11.8 4.1-17.3a179.5 179.5 0 0 1 18-46.5c6.6-10.8 12.3-14 16.3-14.2Zm41.8 93.5c2.8 16.1 5.2 33.7 7 52.4a86.4 86.4 0 0 0-97.2-.1c1.6-18.8 4-36.3 7-52.4h83.2v.1Zm28.8 117h-99.5a32.5 32.5 0 0 1 31.4-24.4h60.9c4 7.6 6.3 15.8 7.2 24.4Zm-120.8-42a70.6 70.6 0 0 1 100.4 0l1.2 1.2h-49a48.6 48.6 0 0 0-48.3 40.8h-24.8c2-15.8 9.1-30.6 20.5-42Zm105-90.6a382 382 0 0 0-4.9-21.3 187.6 187.6 0 0 0-20-50.8l-.8-1.3c27 8.5 51.7 29 71.3 58.3a208 208 0 0 1 9 15h-54.6Zm-84.6-72a195.4 195.4 0 0 0-20 50.9 330 330 0 0 0-4.8 21.2H402c2.8-5.2 6-10.2 9-14.9 19.7-29.4 44.3-49.8 71.4-58.3a8 8 0 0 0-1 1.2ZM454 387.3c-3.6 20.4-6.2 43-7.9 67.2a83.8 83.8 0 0 0-21.7 50h-56c1-43.6 10.4-83.8 25.8-117.2H454ZM352.5 504.7H293c1.6-43.5 16-83.9 39.4-117.2H377a319 319 0 0 0-24.5 117.2Zm15.8 15.7h56.1a85.8 85.8 0 0 0 21.7 50.2c1.6 24.4 4.3 47.1 7.8 67.6h-59.8c-15.5-33.5-25-74-25.8-117.8Zm143.3 211.3c-4 0-9.8-3-16.6-14.2a177.4 177.4 0 0 1-18-46.5c-1.5-5.4-2.8-11.2-4.1-17.3H550c-1.3 6.1-2.7 11.9-4.1 17.3a179.5 179.5 0 0 1-18 46.5c-6.7 11.1-12.6 14.2-16.4 14.2Zm-41.8-93.5c-2.9-16.2-5.2-34-7-52.8a87 87 0 0 0 97.3-.1c-1.7 19-4 36.7-7 53h-83.3Zm92-75.3a70.6 70.6 0 0 1-100.5 0 71.4 71.4 0 0 1-20.3-42h24.8a49.1 49.1 0 0 0 48.3 40.7h49l-1.3 1.3Zm13-17.7h-60.9c-15 0-27.7-10.3-31.4-24.4H582a69.5 69.5 0 0 1-7.2 24.4ZM456.9 654c1.5 7.4 3.1 14.5 4.9 21.3a187.6 187.6 0 0 0 20 50.8l.8 1.3c-27-8.5-51.7-29-71.3-58.3-3.1-4.7-6.2-9.7-9-15h54.6Zm84.5 72a195.4 195.4 0 0 0 20-50.8c1.7-6.7 3.3-13.8 4.8-21.3H621c-2.8 5.2-6 10.2-9 15-19.7 29.3-44.3 49.7-71.4 58.2l.8-1.1Zm27.8-87.8c3.5-20.6 6.2-43.4 8-67.8a86.2 86.2 0 0 0 21.5-50h56.1c-1 43.9-10.5 84.5-25.8 118H569v-.2Zm101.3-117.8H731a218.7 218.7 0 0 1-39.1 118H646a320.4 320.4 0 0 0 24.4-118Zm0-15.7c-1-43-9.8-83.1-24.4-117.2h45.5A217.7 217.7 0 0 1 731 504.7h-60.5Zm9-133h-40.8c-4.3-8.3-8.8-16.1-13.7-23.7a189.3 189.3 0 0 0-35.8-40.3 221 221 0 0 1 90.3 64ZM433 308.6A184.2 184.2 0 0 0 398 348a241 241 0 0 0-13.7 23.7h-39.9a218 218 0 0 1 88.5-63.1ZM344.2 654h40.2c4.3 8.3 8.9 16.1 13.7 23.7A189.3 189.3 0 0 0 434 718a221.8 221.8 0 0 1-89.7-64Zm244.2 64.4c13.5-11 26-25 36.6-40.9 4.9-7.4 9.4-15.2 13.7-23.6h41a218.8 218.8 0 0 1-91.3 64.5Z"/><path stroke="#EF7A36" stroke-miterlimit="10" stroke-width="15.4" d="M512 896.3a383.3 383.3 0 1 0 0-766.6 383.3 383.3 0 0 0 0 766.6Z"/><path stroke="#FFB900" stroke-miterlimit="10" stroke-width="15.4" d="M512 880.9a367.9 367.9 0 1 0 0-735.8 367.9 367.9 0 0 0 0 735.8Z"/><path stroke="#00B979" stroke-miterlimit="10" stroke-width="15.4" d="M512 865.5a352.5 352.5 0 1 0 0-705 352.5 352.5 0 0 0 0 705Z"/></g><defs><clipPath id="a"><path fill="#fff" d="M121 122h782v782H121z"/></clipPath></defs></svg>
